X:1
T:Send Thy Blessing
T:Send Thy Blessing
T:Joseph Lincoln Hall
T:Irvin H. Mack, possibly circa 1905
T:Public Domain, Courtesy of the Cyber Hymnal™
C:Joseph Lincoln Hall
Z:Public Domain,
Z:Courtesy of the Cyber Hymnal™
%%score ( 1 2 ) ( 3 4 )
L:1/8
M:4/4
K:Ab
V:1 treble 
V:2 treble 
V:3 bass 
V:4 bass 
V:1
 [CE]2 | [CA]2 [CA]2 [CA]2 [CA]2 | [DA]2 [DG]2 [DG]2 [DE]2 | [EB]2 [EB]2 [EB]2 [Ec]2 | [CA]6 (AG) | %5
w: 1.~We|come be- fore Thy|throne to- day, Thy|prom- ised pre- sence|claim; O *|
w: 2.~We|know that Thou art|pre- sent here, Thy|grace to us re-|veal; We *|
w: 3.~O|send to us Thy|quick- ’ning pow’r, All|guilt and dross re-|move; O *|
w: 4.~Ac-|cept the hom- age|that we bring, O|Lord, we hum- bly|pray, Be- *|
 [DF]2 [DF]2 [DF]2 [FA]2 | [DF]2 [CE]2 [CA]2 [Ec]2 | [EB]2 [=DA]2 [DG]2 [DF]2 | E4 D4 || %9
w: come and en- ter|now our hearts, And|set our souls a-|flame. *|
w: fain would know Thy|bless- èd will, Thy|ho- ly pre- sence|feel. *|
w: let our wait- ing|hearts be filled, Dear|Sav- ior, with Thy|love. *|
w: stow Thy rich- est|bless- ings now, And|meet with us to-|day. *|
"^Refrain" [CA]4 [CE]2 [Ec]2 | [Ec]4 [EB]4 | [EB]4 E2 [Ed]2 | [Fd]4 [Ec]4 | [Ae]4 [Ac]2 [_GA]2 | %14
w: |||||
w: |||||
w: |||||
w: |||||
 [FA]4 [DF]4 | [CE]2 [Ec]2 [Ec]2 [DB]2 | [CA]6 |] %17
w: |||
w: |||
w: |||
w: |||
V:2
 x2 | x8 | x8 | x8 | x6 E2 | x8 | x8 | x8 | E2 C2 x4 || x8 | x8 | x4 E2 x2 | x8 | x8 | x8 | x8 | %16
 x6 |] %17
V:3
 [A,,A,]2 | [A,,A,]2 [A,,A,]2 [A,,A,]2 [A,,A,]2 | [E,B,]2 [E,B,]2 [E,B,]2 [E,B,]2 | %3
w: ~|~ ~ ~ ~|~ ~ ~ ~|
 [E,G,]2 [E,G,]2 [E,G,]2 [E,G,]2 | [A,,A,]6 [C,A,]2 | [D,A,]2 [D,A,]2 [D,A,]2 [D,A,]2 | %6
w: ~ ~ ~ ~|~ ~|~ ~ ~ ~|
 [A,,A,]2 [A,,A,]2 [A,,A,]2 [A,,A,]2 | [B,,G,]2 [B,,F,]2 [B,,B,]2 [B,,A,]2 | (G,2 A,2 B,4) || %9
w: ~ ~ ~ ~|~ ~ ~ ~|~ * *|
 [A,,A,]4 [A,,A,]2 [A,,A,]2 | [E,A,]4 [E,G,]4 | [E,G,]4 [E,G,]2 [E,G,]2 | [A,,A,]4 [A,,A,]4 | %13
w: Lord, send Thy|bless- ing,|Lord, send Thy|bless- ing,|
 [A,C]4 [A,E]2 [A,C]2 | [D,D]4 [D,A,]4 | [E,A,]2 [E,A,]2 [E,G,]2 [E,G,]2 | [A,,A,]6 |] %17
w: Lord, send Thy|bless- ing|On our wait- ing|souls.|
V:4
 x2 | x8 | x8 | x8 | x8 | x8 | x8 | x8 | E,4 x4 || x8 | x8 | x8 | x8 | x8 | x8 | x8 | x6 |] %17

